src/assets/Imgs/proposal/commentReply.svg

<svg fill="none" height="16" viewBox="0 0 16 16" width="16" xmlns="http://www.w3.org/2000/svg"><path d="m7.6435 13.354-1.8505-1.855h-2.792c-.13151.0002-.26176-.0256-.3833-.0758-.12153-.0502-.23196-.124-.32495-.217s-.16672-.2034-.21695-.3249c-.05024-.1216-.076-.2518-.0758-.3833l.005-6.99701c0-.554.445-1.0005 1.001-1.0005h9.9935c.553 0 1.001.4465 1.0005 1.001l-.005 6.99751c0 .5525-.448 1-1.0005 1h-2.7865l-1.858 1.855c-.04639.0464-.10146.0832-.16207.1083s-.12557.038-.19118.038-.13057-.0129-.19118-.038-.11569-.0619-.16207-.1083zm5.352-2.856.0045-6.99701s-9.995-.0015-9.995.0005c0 0-.0045 6.99701-.0035 6.99701h2.9985c.1325 0 .26.0525.3535.1465l1.6445 1.648 1.65-1.6485c.04644-.0464.10157-.0831.16222-.1082.06066-.025.12565-.0379.19128-.0378h2.994zm-7.7455-2.49751c-.19891 0-.38968-.07902-.53033-.21967-.14065-.14066-.21967-.33142-.21967-.53033 0-.19892.07902-.38968.21967-.53033.14065-.14066.33142-.21967.53033-.21967s.38968.07901.53033.21967c.14065.14065.21967.33141.21967.53033 0 .19891-.07902.38967-.21967.53033-.14065.14065-.33142.21967-.53033.21967zm2.75 0c-.19891 0-.38968-.07902-.53033-.21967-.14065-.14066-.21967-.33142-.21967-.53033 0-.19892.07902-.38968.21967-.53033.14065-.14066.33142-.21967.53033-.21967s.38968.07901.53033.21967c.14065.14065.21967.33141.21967.53033 0 .19891-.07902.38967-.21967.53033-.14065.14065-.33142.21967-.53033.21967zm2.75 0c-.1989 0-.3897-.07902-.5303-.21967-.1407-.14066-.2197-.33142-.2197-.53033 0-.19892.079-.38968.2197-.53033.1406-.14066.3314-.21967.5303-.21967s.3897.07901.5303.21967c.1407.14065.2197.33141.2197.53033 0 .19891-.079.38967-.2197.53033-.1406.14065-.3314.21967-.5303.21967z" fill="#2f8fff"/></svg>

<svg width="16" height="16" viewBox="0 0 16 16" fill="none" xmlns="http://www.w3.org/2000/svg">
<path d="M7.6435 13.354L5.793 11.499H3.001C2.86949 11.4992 2.73924 11.4734 2.6177 11.4232C2.49617 11.373 2.38574 11.2992 2.29275 11.2062C2.19976 11.1132 2.12603 11.0028 2.0758 10.8813C2.02556 10.7597 1.9998 10.6295 2 10.498L2.005 3.50099C2.005 2.94699 2.45 2.50049 3.006 2.50049H12.9995C13.5525 2.50049 14.0005 2.94699 14 3.50149L13.995 10.499C13.995 11.0515 13.547 11.499 12.9945 11.499H10.208L8.35 13.354C8.30361 13.4004 8.24854 13.4372 8.18793 13.4623C8.12732 13.4874 8.06236 13.5003 7.99675 13.5003C7.93114 13.5003 7.86618 13.4874 7.80557 13.4623C7.74496 13.4372 7.68988 13.4004 7.6435 13.354ZM12.9955 10.498L13 3.50099C13 3.50099 3.005 3.49949 3.005 3.50149C3.005 3.50149 3.0005 10.4985 3.0015 10.4985H6C6.1325 10.4985 6.26 10.551 6.3535 10.645L7.998 12.293L9.648 10.6445C9.69444 10.5981 9.74957 10.5614 9.81022 10.5363C9.87088 10.5113 9.93587 10.4984 10.0015 10.4985H12.9955V10.498ZM5.25 8.00049C5.05109 8.00049 4.86032 7.92147 4.71967 7.78082C4.57902 7.64016 4.5 7.4494 4.5 7.25049C4.5 7.05157 4.57902 6.86081 4.71967 6.72016C4.86032 6.5795 5.05109 6.50049 5.25 6.50049C5.44891 6.50049 5.63968 6.5795 5.78033 6.72016C5.92098 6.86081 6 7.05157 6 7.25049C6 7.4494 5.92098 7.64016 5.78033 7.78082C5.63968 7.92147 5.44891 8.00049 5.25 8.00049ZM8 8.00049C7.80109 8.00049 7.61032 7.92147 7.46967 7.78082C7.32902 7.64016 7.25 7.4494 7.25 7.25049C7.25 7.05157 7.32902 6.86081 7.46967 6.72016C7.61032 6.5795 7.80109 6.50049 8 6.50049C8.19891 6.50049 8.38968 6.5795 8.53033 6.72016C8.67098 6.86081 8.75 7.05157 8.75 7.25049C8.75 7.4494 8.67098 7.64016 8.53033 7.78082C8.38968 7.92147 8.19891 8.00049 8 8.00049ZM10.75 8.00049C10.5511 8.00049 10.3603 7.92147 10.2197 7.78082C10.079 7.64016 10 7.4494 10 7.25049C10 7.05157 10.079 6.86081 10.2197 6.72016C10.3603 6.5795 10.5511 6.50049 10.75 6.50049C10.9489 6.50049 11.1397 6.5795 11.2803 6.72016C11.421 6.86081 11.5 7.05157 11.5 7.25049C11.5 7.4494 11.421 7.64016 11.2803 7.78082C11.1397 7.92147 10.9489 8.00049 10.75 8.00049Z" fill="#2F8FFF"/>
</svg>
